X: 24361
T: Lovat Scouts, The
R: polka
M: 2/4
K: Amajor
|:A/<A/|A.c. e.A/<A/|df ag/f/|e>c Ac|B2 BA/<A/|
A.c. e.A/<A/|df ag/f/|e>c dB|A2 A:|
e/<e/|aA ce|fd df|e>c Ac|B2 Be/<e/|
aA ce|fa df|e>c dB|A2 Ae/<e/|
aA ce|fa df|e>c Ac|B2 Be/c/|
A/B/c/d/ ec/A/|d/.e/.f/.g/. ag/f/|e>c dB|A2 A||

